svg/fonts/font_epistemonikos.svg

<?xml version="1.0" encoding="UTF-8" standalone="no"?>
<!-- Created with Inkscape (http://www.inkscape.org/) -->

<svg
   xmlns:dc="http://purl.org/dc/elements/1.1/"
   xmlns:cc="http://creativecommons.org/ns#"
   xmlns:rdf="http://www.w3.org/1999/02/22-rdf-syntax-ns#"
   xmlns:svg="http://www.w3.org/2000/svg"
   xmlns="http://www.w3.org/2000/svg"
   xmlns:sodipodi="http://sodipodi.sourceforge.net/DTD/sodipodi-0.dtd"
   xmlns:inkscape="http://www.inkscape.org/namespaces/inkscape"
   version="1.0"
   width="1000"
   height="1000"
   id="svg5496"
   sodipodi:version="0.32"
   inkscape:version="0.48.2 r9819"
   sodipodi:docname="font_epistemonikos.svg"
   inkscape:output_extension="org.inkscape.output.svg.inkscape"
   enable-background="new">
  <title
     id="title3007">Epistemonikos Font</title>
  <metadata
     id="metadata5594">
    <rdf:RDF>
      <cc:Work
         rdf:about="">
        <dc:format>image/svg+xml</dc:format>
        <dc:type
           rdf:resource="http://purl.org/dc/dcmitype/StillImage" />
        <dc:title>Epistemonikos Font</dc:title>
        <cc:license
           rdf:resource="http://creativecommons.org/licenses/by/3.0/" />
        <dc:creator>
          <cc:Agent>
            <dc:title>Francisco Madrid</dc:title>
          </cc:Agent>
        </dc:creator>
        <dc:date>2014-01-23</dc:date>
        <dc:rights>
          <cc:Agent>
            <dc:title>Epistemonikos</dc:title>
          </cc:Agent>
        </dc:rights>
      </cc:Work>
      <cc:License
         rdf:about="http://creativecommons.org/licenses/by/3.0/">
        <cc:permits
           rdf:resource="http://creativecommons.org/ns#Reproduction" />
        <cc:permits
           rdf:resource="http://creativecommons.org/ns#Distribution" />
        <cc:requires
           rdf:resource="http://creativecommons.org/ns#Notice" />
        <cc:requires
           rdf:resource="http://creativecommons.org/ns#Attribution" />
        <cc:permits
           rdf:resource="http://creativecommons.org/ns#DerivativeWorks" />
      </cc:License>
    </rdf:RDF>
  </metadata>
  <sodipodi:namedview
     inkscape:window-height="752"
     inkscape:window-width="1280"
     inkscape:pageshadow="2"
     inkscape:pageopacity="0.0"
     borderopacity="1.0"
     bordercolor="#666666"
     pagecolor="#ffffff"
     id="base"
     showgrid="false"
     showguides="true"
     inkscape:guide-bbox="true"
     inkscape:zoom="0.534"
     inkscape:cx="364.23221"
     inkscape:cy="500"
     inkscape:window-x="0"
     inkscape:window-y="0"
     inkscape:current-layer="layer1"
     inkscape:window-maximized="1"
     inkscape:snap-global="true">
    <sodipodi:guide
       orientation="horizontal"
       position="200"
       id="guide5596" />
  </sodipodi:namedview>
  <defs
     id="defs5498">
    <inkscape:perspective
       sodipodi:type="inkscape:persp3d"
       inkscape:vp_x="0 : 500 : 1"
       inkscape:vp_y="0 : 1000 : 0"
       inkscape:vp_z="1000 : 500 : 1"
       inkscape:persp3d-origin="500 : 333.33333 : 1"
       id="perspective3931" />
    <font
       horiz-adv-x="1024"
       id="Epistemonikos"
       inkscape:label="Epistemonikos">
      <font-face
         units-per-em="1024"
         id="font-face-epistemonikos"
         font-family="Epistemonikos" />
      <missing-glyph
         id="missing-glyph"
         d="" />
      <glyph
         glyph-name=".notdef"
         d=""
         id="glyph2994" />
      <glyph
         glyph-name="Epistemonikos-Logo"
         id="glyph-epistemonikos-logo"
         unicode="E"
         d="M 841.28125,893.4375 C 594.02129,893.07515 86.301317,785.79382 75.46875,767.03125 -12.503648,713.33508 21.670615,590.33308 131.1875,559.8125 246.20746,533.24526 397.27053,537.79765 518.28125,548.75 c 125.55375,11.36351 241.91313,68.98087 292.625,103.0625 58.69774,39.44865 117.88956,81.48608 145.75,127.34375 16.75922,38.31912 19.40269,43.59438 17.15625,75.5 -1.09751,28.10875 -53.51003,38.89705 -132.53125,38.78125 z m -48.40625,-292.5 c -76.12606,-39.9554 -93.44077,-50.70392 -189.96875,-73.125 -10.34773,-77.26302 -44.94848,-302.55134 -32,-309.46875 9.03119,-18.66927 131.07136,-61.59296 157.34375,-61.375 40.63578,-9.57526 83.58543,7.17979 131.875,86.84375 11.44318,47.71898 -47.27166,291.96664 -67.25,357.125 z M 231.40625,514.75 c -10.5217,-76.17291 -43.48098,-206.15717 -8.5,-233.71875 64.98588,-37.51962 125.80049,-40.9108 158,-29.375 32.77785,14.23085 19.1273,131.48753 13.71875,258.53125 -32.82952,-6.7968 -115.48284,-0.87464 -163.21875,4.5625 z" />
      <glyph
         glyph-name="Epistemonikos-Smiley"
         id="glyph-epistemonikos-smiley"
         unicode="☺"
         d="M 500,998.5 C 237.94881,998.5 25.5,786.05118 25.5,524 25.5,261.9488 237.94881,49.5 500,49.5 762.05118,49.5 974.5,261.9488 974.5,524 974.5,786.05118 762.05118,998.5 500,998.5 z m 0,-74.90625 C 720.67469,923.59375 899.59375,744.67469 899.59375,524 899.59375,303.32529 720.67469,124.40625 500,124.40625 279.3253,124.40625 100.40625,303.3253 100.40625,524 100.40625,744.6747 279.3253,923.59375 500,923.59375 z M 275.46875,783.5625 l 0,-39.0625 449.0625,0 0,39.0625 -449.0625,0 z M 347.5,693.5 c -32.85949,0 -59.5,-26.64051 -59.5,-59.5 0,-32.85949 26.64051,-59.5 59.5,-59.5 32.85949,0 59.5,26.64051 59.5,59.5 0,32.85949 -26.64051,59.5 -59.5,59.5 z m 305,0 c -32.85949,0 -59.5,-26.64051 -59.5,-59.5 0,-32.85949 26.64051,-59.5 59.5,-59.5 32.85949,0 59.5,26.64051 59.5,59.5 0,32.85949 -26.64051,59.5 -59.5,59.5 z M 308,416.875 275.90625,399.84375 C 306.16235,311.94829 395.03902,248.28125 500,248.28125 c 104.86059,0 193.69058,63.54757 224.03125,151.3125 l -32.125,17.0625 C 668.76134,357.02556 591.62863,313.21875 500,313.21875 c -91.73359,0 -168.95381,43.91767 -192,103.65625 z" />
      <glyph
         glyph-name="iEtD-Plus"
         id="glyph-ietd-plus"
         unicode="⊕"
         d="M 500,998.5 C 237.94881,998.5 25.5,786.05118 25.5,524 25.5,261.9488 237.94881,49.5 500,49.5 762.05118,49.5 974.5,261.9488 974.5,524 974.5,786.05118 762.05118,998.5 500,998.5 z m 0,-74.90625 C 720.67469,923.59375 899.59375,744.67469 899.59375,524 899.59375,303.32529 720.67469,124.40625 500,124.40625 279.3253,124.40625 100.40625,303.3253 100.40625,524 100.40625,744.6747 279.3253,923.59375 500,923.59375 z m -39.5625,-150.03125 0,-210 -210,0 0,-79.125 210,0 0,-210 79.125,0 0,210 210,0 0,79.125 -210,0 0,210 -79.125,0 z" />
      <glyph
         glyph-name="iEtD-Blank"
         id="glyph-ietd-blank"
         unicode="○"
         d="M 500,923.59375 C 720.67469,923.59375 899.59375,744.67469 899.59375,524 899.59375,303.32529 720.67469,124.40625 500,124.40625 279.3253,124.40625 100.40625,303.3253 100.40625,524 100.40625,744.6747 279.3253,923.59375 500,923.59375 z M 500,998.5 C 237.94881,998.5 25.5,786.05118 25.5,524 25.5,261.9488 237.94881,49.5 500,49.5 762.05118,49.5 974.5,261.9488 974.5,524 974.5,786.05118 762.05118,998.5 500,998.5 z" />
    </font>
  </defs>
  <g
     style="display:none"
     inkscape:label="ietd-blank"
     id="g3912"
     inkscape:groupmode="layer"
     sodipodi:insensitive="true">
    <path
       id="path5064"
       style="fill:none;stroke:#000000;stroke-width:0.84220964;stroke-linecap:square;stroke-miterlimit:4;stroke-dasharray:none;display:inline"
       d="M 500,100.40625 C 720.67469,100.40625 899.59375,279.32531 899.59375,500 899.59375,720.67471 720.67469,899.59375 500,899.59375 279.3253,899.59375 100.40625,720.6747 100.40625,500 100.40625,279.3253 279.3253,100.40625 500,100.40625 z M 500,25.5 C 237.94881,25.5 25.5,237.94882 25.5,500 25.5,762.0512 237.94881,974.5 500,974.5 762.05118,974.5 974.5,762.0512 974.5,500 974.5,237.94882 762.05118,25.5 500,25.5 z"
       inkscape:connector-curvature="0" />
  </g>
  <g
     inkscape:groupmode="layer"
     id="layer4"
     inkscape:label="ietd-plus"
     style="display:none"
     sodipodi:insensitive="true">
    <path
       style="fill:none;stroke:#000000;stroke-width:0.84220964;stroke-linecap:square;stroke-miterlimit:4;stroke-dasharray:none;display:inline"
       d="M 500,25.5 C 237.94881,25.5 25.5,237.94882 25.5,500 25.5,762.0512 237.94881,974.5 500,974.5 762.05118,974.5 974.5,762.0512 974.5,500 974.5,237.94882 762.05118,25.5 500,25.5 z m 0,74.90625 C 720.67469,100.40625 899.59375,279.32531 899.59375,500 899.59375,720.67471 720.67469,899.59375 500,899.59375 279.3253,899.59375 100.40625,720.6747 100.40625,500 100.40625,279.3253 279.3253,100.40625 500,100.40625 z m -39.5625,150.03125 0,210 -210,0 0,79.125 210,0 0,210 79.125,0 0,-210 210,0 0,-79.125 -210,0 0,-210 -79.125,0 z"
       id="path5049"
       inkscape:connector-curvature="0" />
  </g>
  <g
     inkscape:groupmode="layer"
     id="g3005"
     inkscape:label="epistemonikos-smiley"
     style="display:none"
     sodipodi:insensitive="true">
    <path
       style="opacity:0.7;fill:none;stroke:#000000;stroke-width:1;stroke-linecap:square;stroke-miterlimit:4;stroke-opacity:1;stroke-dasharray:none;stroke-dashoffset:0"
       d="M 500,25.5 C 237.94881,25.5 25.5,237.94882 25.5,500 25.5,762.0512 237.94881,974.5 500,974.5 762.05118,974.5 974.5,762.0512 974.5,500 974.5,237.94882 762.05118,25.5 500,25.5 z m 0,74.90625 C 720.67469,100.40625 899.59375,279.32531 899.59375,500 899.59375,720.67471 720.67469,899.59375 500,899.59375 279.3253,899.59375 100.40625,720.6747 100.40625,500 100.40625,279.3253 279.3253,100.40625 500,100.40625 z m -224.53125,140.03125 0,39.0625 449.0625,0 0,-39.0625 -449.0625,0 z M 347.5,330.5 c -32.85949,0 -59.5,26.64051 -59.5,59.5 0,32.85949 26.64051,59.5 59.5,59.5 32.85949,0 59.5,-26.64051 59.5,-59.5 0,-32.85949 -26.64051,-59.5 -59.5,-59.5 z m 305,0 c -32.85949,0 -59.5,26.64051 -59.5,59.5 0,32.85949 26.64051,59.5 59.5,59.5 32.85949,0 59.5,-26.64051 59.5,-59.5 0,-32.85949 -26.64051,-59.5 -59.5,-59.5 z M 308,607.125 275.90625,624.15625 c 30.2561,87.89546 119.13277,151.5625 224.09375,151.5625 104.86059,0 193.69058,-63.54757 224.03125,-151.3125 l -32.125,-17.0625 C 668.76134,666.97444 591.62863,710.78125 500,710.78125 c -91.73359,0 -168.95381,-43.91767 -192,-103.65625 z"
       id="path3845"
       inkscape:connector-curvature="0" />
  </g>
  <g
     inkscape:groupmode="layer"
     id="layer1"
     inkscape:label="epistemonikos-logo"
     sodipodi:insensitive="true"
     style="display:inline">
    <path
       style="fill:none;stroke:#000000;stroke-width:1.00000119;stroke-linecap:square;stroke-miterlimit:4;stroke-opacity:1;stroke-dasharray:none"
       d="M 841.28125,130.5625 C 594.02129,130.92485 86.301317,238.20618 75.46875,256.96875 -12.503648,310.66492 21.670615,433.66692 131.1875,464.1875 c 115.01996,26.56724 266.08303,22.01485 387.09375,11.0625 125.55375,-11.36351 241.91313,-68.98087 292.625,-103.0625 58.69774,-39.44865 117.88956,-81.48608 145.75,-127.34375 16.75922,-38.31912 19.40269,-43.59438 17.15625,-75.5 C 972.71499,141.235 920.30247,130.4467 841.28125,130.5625 z m -48.40625,292.5 c -76.12606,39.9554 -93.44077,50.70392 -189.96875,73.125 -10.34773,77.26302 -44.94848,302.55134 -32,309.46875 9.03119,18.66927 131.07136,61.59296 157.34375,61.375 40.63578,9.57526 83.58543,-7.17979 131.875,-86.84375 11.44318,-47.71898 -47.27166,-291.96664 -67.25,-357.125 z M 231.40625,509.25 c -10.5217,76.17291 -43.48098,206.15717 -8.5,233.71875 64.98588,37.51962 125.80049,40.9108 158,29.375 32.77785,-14.23085 19.1273,-131.48753 13.71875,-258.53125 -32.82952,6.7968 -115.48284,0.87464 -163.21875,-4.5625 z"
       id="path3005"
       inkscape:connector-curvature="0" />
  </g>
</svg>

<?xml version="1.0" encoding="UTF-8" standalone="no"?>
<!-- Created with Inkscape (http://www.inkscape.org/) -->

<svg
   xmlns:dc="http://purl.org/dc/elements/1.1/"
   xmlns:cc="http://creativecommons.org/ns#"
   xmlns:rdf="http://www.w3.org/1999/02/22-rdf-syntax-ns#"
   xmlns:svg="http://www.w3.org/2000/svg"
   xmlns="http://www.w3.org/2000/svg"
   xmlns:sodipodi="http://sodipodi.sourceforge.net/DTD/sodipodi-0.dtd"
   xmlns:inkscape="http://www.inkscape.org/namespaces/inkscape"
   version="1.0"
   width="1000"
   height="1000"
   id="svg5496"
   sodipodi:version="0.32"
   inkscape:version="0.48.2 r9819"
   sodipodi:docname="font_epistemonikos.svg"
   inkscape:output_extension="org.inkscape.output.svg.inkscape"
   enable-background="new">
  <metadata
     id="metadata5594">
    <rdf:RDF>
      <cc:Work
         rdf:about="">
        <dc:format>image/svg+xml</dc:format>
        <dc:type
           rdf:resource="http://purl.org/dc/dcmitype/StillImage" />
        <dc:title />
      </cc:Work>
    </rdf:RDF>
  </metadata>
  <sodipodi:namedview
     inkscape:window-height="752"
     inkscape:window-width="1280"
     inkscape:pageshadow="2"
     inkscape:pageopacity="0.0"
     borderopacity="1.0"
     bordercolor="#666666"
     pagecolor="#ffffff"
     id="base"
     showgrid="false"
     showguides="true"
     inkscape:guide-bbox="true"
     inkscape:zoom="0.454"
     inkscape:cx="413.4896"
     inkscape:cy="565.42976"
     inkscape:window-x="0"
     inkscape:window-y="0"
     inkscape:current-layer="g3005"
     inkscape:window-maximized="1"
     inkscape:snap-global="true">
    <sodipodi:guide
       orientation="horizontal"
       position="200"
       id="guide5596" />
  </sodipodi:namedview>
  <defs
     id="defs5498">
    <inkscape:perspective
       sodipodi:type="inkscape:persp3d"
       inkscape:vp_x="0 : 500 : 1"
       inkscape:vp_y="0 : 1000 : 0"
       inkscape:vp_z="1000 : 500 : 1"
       inkscape:persp3d-origin="500 : 333.33333 : 1"
       id="perspective3931" />
    <font
       horiz-adv-x="1024"
       id="Epistemonikos"
       inkscape:label="Epistemonikos">
      <font-face
         units-per-em="1024"
         id="font-face-epistemonikos"
         font-family="Epistemonikos" />
      <missing-glyph
         id="missing-glyph"
         d="" />
      <glyph
         glyph-name=".notdef"
         d=""
         id="glyph2994" />
      <glyph
         glyph-name="Epistemonikos-Logo"
         id="glyph-epistemonikos-logo"
         unicode="E"
         d="M 841.28125,893.4375 C 594.02129,893.07515 86.301317,785.79382 75.46875,767.03125 -12.503648,713.33508 21.670615,590.33308 131.1875,559.8125 246.20746,533.24526 397.27053,537.79765 518.28125,548.75 c 125.55375,11.36351 241.91313,68.98087 292.625,103.0625 58.69774,39.44865 117.88956,81.48608 145.75,127.34375 16.75922,38.31912 19.40269,43.59438 17.15625,75.5 -1.09751,28.10875 -53.51003,38.89705 -132.53125,38.78125 z m -48.40625,-292.5 c -76.12606,-39.9554 -93.44077,-50.70392 -189.96875,-73.125 -10.34773,-77.26302 -44.94848,-302.55134 -32,-309.46875 9.03119,-18.66927 131.07136,-61.59296 157.34375,-61.375 40.63578,-9.57526 83.58543,7.17979 131.875,86.84375 11.44318,47.71898 -47.27166,291.96664 -67.25,357.125 z M 231.40625,514.75 c -10.5217,-76.17291 -43.48098,-206.15717 -8.5,-233.71875 64.98588,-37.51962 125.80049,-40.9108 158,-29.375 32.77785,14.23085 19.1273,131.48753 13.71875,258.53125 -32.82952,-6.7968 -115.48284,-0.87464 -163.21875,4.5625 z" />
      <glyph
         glyph-name="iEtD-Plus"
         id="glyph-ietd-plus"
         unicode="⊕"
         d="M 500,998.5 C 237.94881,998.5 25.5,786.05118 25.5,524 25.5,261.9488 237.94881,49.5 500,49.5 762.05118,49.5 974.5,261.9488 974.5,524 974.5,786.05118 762.05118,998.5 500,998.5 z m 0,-74.90625 C 720.67469,923.59375 899.59375,744.67469 899.59375,524 899.59375,303.32529 720.67469,124.40625 500,124.40625 279.3253,124.40625 100.40625,303.3253 100.40625,524 100.40625,744.6747 279.3253,923.59375 500,923.59375 z m -39.5625,-150.03125 0,-210 -210,0 0,-79.125 210,0 0,-210 79.125,0 0,210 210,0 0,79.125 -210,0 0,210 -79.125,0 z" />
      <glyph
         glyph-name="iEtD-Blank"
         id="glyph-ietd-blank"
         unicode="○"
         d="M 500,923.59375 C 720.67469,923.59375 899.59375,744.67469 899.59375,524 899.59375,303.32529 720.67469,124.40625 500,124.40625 279.3253,124.40625 100.40625,303.3253 100.40625,524 100.40625,744.6747 279.3253,923.59375 500,923.59375 z M 500,998.5 C 237.94881,998.5 25.5,786.05118 25.5,524 25.5,261.9488 237.94881,49.5 500,49.5 762.05118,49.5 974.5,261.9488 974.5,524 974.5,786.05118 762.05118,998.5 500,998.5 z" />
      <glyph
         glyph-name="Epistemonikos-Smiley"
         id="glyph-epistemonikos-smiley"
         unicode="☺"
         d="M 500,998.5 C 237.94881,998.5 25.5,786.05118 25.5,524 25.5,261.9488 237.94881,49.5 500,49.5 762.05118,49.5 974.5,261.9488 974.5,524 974.5,786.05118 762.05118,998.5 500,998.5 z m 0,-74.90625 C 720.67469,923.59375 899.59375,744.67469 899.59375,524 899.59375,303.32529 720.67469,124.40625 500,124.40625 279.3253,124.40625 100.40625,303.3253 100.40625,524 100.40625,744.6747 279.3253,923.59375 500,923.59375 z M 275.46875,783.5625 l 0,-39.0625 449.0625,0 0,39.0625 -449.0625,0 z M 347.5,693.5 c -32.85949,0 -59.5,-26.64051 -59.5,-59.5 0,-32.85949 26.64051,-59.5 59.5,-59.5 32.85949,0 59.5,26.64051 59.5,59.5 0,32.85949 -26.64051,59.5 -59.5,59.5 z m 305,0 c -32.85949,0 -59.5,-26.64051 -59.5,-59.5 0,-32.85949 26.64051,-59.5 59.5,-59.5 32.85949,0 59.5,26.64051 59.5,59.5 0,32.85949 -26.64051,59.5 -59.5,59.5 z M 308,416.875 275.90625,399.84375 C 306.16235,311.94829 395.03902,248.28125 500,248.28125 c 104.86059,0 193.69058,63.54757 224.03125,151.3125 l -32.125,17.0625 C 668.76134,357.02556 591.62863,313.21875 500,313.21875 c -91.73359,0 -168.95381,43.91767 -192,103.65625 z" />
    </font>
  </defs>
  <g
     inkscape:groupmode="layer"
     id="g3005"
     inkscape:label="epistemonikos-smiley"
     style="display:inline">
    <path
       style="opacity:0.7;fill:none;stroke:#000000;stroke-width:1;stroke-linecap:square;stroke-miterlimit:4;stroke-opacity:1;stroke-dasharray:none;stroke-dashoffset:0"
       d="M 500 25.5 C 237.94881 25.5 25.5 237.94882 25.5 500 C 25.5 762.0512 237.94881 974.5 500 974.5 C 762.05118 974.5 974.5 762.0512 974.5 500 C 974.5 237.94882 762.05118 25.5 500 25.5 z M 500 100.40625 C 720.67469 100.40625 899.59375 279.32531 899.59375 500 C 899.59375 720.67471 720.67469 899.59375 500 899.59375 C 279.3253 899.59375 100.40625 720.6747 100.40625 500 C 100.40625 279.3253 279.3253 100.40625 500 100.40625 z M 275.46875 240.4375 L 275.46875 279.5 L 724.53125 279.5 L 724.53125 240.4375 L 275.46875 240.4375 z M 347.5 330.5 C 314.64051 330.5 288 357.14051 288 390 C 288 422.85949 314.64051 449.5 347.5 449.5 C 380.35949 449.5 407 422.85949 407 390 C 407 357.14051 380.35949 330.5 347.5 330.5 z M 652.5 330.5 C 619.64051 330.5 593 357.14051 593 390 C 593 422.85949 619.64051 449.5 652.5 449.5 C 685.35949 449.5 712 422.85949 712 390 C 712 357.14051 685.35949 330.5 652.5 330.5 z M 308 607.125 L 275.90625 624.15625 C 306.16235 712.05171 395.03902 775.71875 500 775.71875 C 604.86059 775.71875 693.69058 712.17118 724.03125 624.40625 L 691.90625 607.34375 C 668.76134 666.97444 591.62863 710.78125 500 710.78125 C 408.26641 710.78125 331.04619 666.86358 308 607.125 z "
       id="path3845" />
  </g>
  <g
     inkscape:groupmode="layer"
     id="layer1"
     inkscape:label="epistemonikos-logo"
     sodipodi:insensitive="true"
     style="display:none">
    <path
       style="fill:none;stroke:#000000;stroke-width:1.00000119;stroke-linecap:square;stroke-miterlimit:4;stroke-opacity:1;stroke-dasharray:none"
       d="M 841.28125,130.5625 C 594.02129,130.92485 86.301317,238.20618 75.46875,256.96875 -12.503648,310.66492 21.670615,433.66692 131.1875,464.1875 c 115.01996,26.56724 266.08303,22.01485 387.09375,11.0625 125.55375,-11.36351 241.91313,-68.98087 292.625,-103.0625 58.69774,-39.44865 117.88956,-81.48608 145.75,-127.34375 16.75922,-38.31912 19.40269,-43.59438 17.15625,-75.5 C 972.71499,141.235 920.30247,130.4467 841.28125,130.5625 z m -48.40625,292.5 c -76.12606,39.9554 -93.44077,50.70392 -189.96875,73.125 -10.34773,77.26302 -44.94848,302.55134 -32,309.46875 9.03119,18.66927 131.07136,61.59296 157.34375,61.375 40.63578,9.57526 83.58543,-7.17979 131.875,-86.84375 11.44318,-47.71898 -47.27166,-291.96664 -67.25,-357.125 z M 231.40625,509.25 c -10.5217,76.17291 -43.48098,206.15717 -8.5,233.71875 64.98588,37.51962 125.80049,40.9108 158,29.375 32.77785,-14.23085 19.1273,-131.48753 13.71875,-258.53125 -32.82952,6.7968 -115.48284,0.87464 -163.21875,-4.5625 z"
       id="path3005"
       inkscape:connector-curvature="0" />
  </g>
  <g
     inkscape:groupmode="layer"
     id="layer4"
     inkscape:label="ietd-plus"
     style="display:none"
     sodipodi:insensitive="true">
    <path
       style="fill:none;stroke:#000000;stroke-width:0.84220964;stroke-linecap:square;stroke-miterlimit:4;stroke-dasharray:none;display:inline"
       d="M 500,25.5 C 237.94881,25.5 25.5,237.94882 25.5,500 25.5,762.0512 237.94881,974.5 500,974.5 762.05118,974.5 974.5,762.0512 974.5,500 974.5,237.94882 762.05118,25.5 500,25.5 z m 0,74.90625 C 720.67469,100.40625 899.59375,279.32531 899.59375,500 899.59375,720.67471 720.67469,899.59375 500,899.59375 279.3253,899.59375 100.40625,720.6747 100.40625,500 100.40625,279.3253 279.3253,100.40625 500,100.40625 z m -39.5625,150.03125 0,210 -210,0 0,79.125 210,0 0,210 79.125,0 0,-210 210,0 0,-79.125 -210,0 0,-210 -79.125,0 z"
       id="path5049"
       inkscape:connector-curvature="0" />
  </g>
  <g
     style="display:none"
     inkscape:label="ietd-blank"
     id="g3912"
     inkscape:groupmode="layer"
     sodipodi:insensitive="true">
    <path
       id="path5064"
       style="fill:none;stroke:#000000;stroke-width:0.84220964;stroke-linecap:square;stroke-miterlimit:4;stroke-dasharray:none;display:inline"
       d="M 500,100.40625 C 720.67469,100.40625 899.59375,279.32531 899.59375,500 899.59375,720.67471 720.67469,899.59375 500,899.59375 279.3253,899.59375 100.40625,720.6747 100.40625,500 100.40625,279.3253 279.3253,100.40625 500,100.40625 z M 500,25.5 C 237.94881,25.5 25.5,237.94882 25.5,500 25.5,762.0512 237.94881,974.5 500,974.5 762.05118,974.5 974.5,762.0512 974.5,500 974.5,237.94882 762.05118,25.5 500,25.5 z"
       inkscape:connector-curvature="0" />
  </g>
</svg>
